X:1
T:[ID 1-139a]
T:[ID 1-139a]
T:Bezeichnung standardisiert: Menuett Menuet
T:Urheber unbekannt Datum in der hier transkribierten schriftlichen Quelle: 1773
C:Urheber unbekannt
C:Datum in der hier transkribierten schriftlichen Quelle: 1773
L:1/8
M:3/4
K:D
V:1 treble 
V:1
 D2 F2 A2 | d3 efg | a2 a2 fa | g2 eg f2 | A4 FG | AGFE D2 | ef g2 f2 | e6 :: A4 a2 | (ag)(gf) f2 | %10
 A4 g2 | (gf)(fe) e2 | B2 B2 B2 | A2 dc d2 | egfgac | d6 :| %16

